X:1
T:Lady Warkworth's Reel [2]
M:C|
L:1/8
R:Reel
S:William Vickers' music manuscript collection (Northumberland, 1770)
K:G
GBdg ec e2|dBAG A/A/A A2|GBdg ec e2|dBAB G/G/G G2:|
|:(3EFG (3EFG DGDG|B,/G,/B,/G,/ A,/A,/A, A,2|(3EFG (3EFG DGDG|[G,2D2B2] AG G/G/G G2|
gbge dBAB|G/G/G gB A/A/A A2|[G,3D3B3g3]b gedB|AGAB G/G/G G2:|

